svgs/sharp-solid/battery-quarter.svg

<svg xmlns="http://www.w3.org/2000/svg" viewBox="0 0 576 512"><!--! Font Awesome Pro 6.6.0 by @fontawesome - https://fontawesome.com License - https://fontawesome.com/license (Commercial License) Copyright 2024 Fonticons, Inc. --><path d="M480 160l0 192L64 352l0-192 416 0zM64 96L0 96l0 64L0 352l0 64 64 0 416 0 64 0 0-64 0-32 32 0 0-128-32 0 0-32 0-64-64 0L64 96zm128 96l-96 0 0 128 96 0 0-128z"/></svg>

<svg xmlns="http://www.w3.org/2000/svg" viewBox="0 0 576 512"><!--! Font Awesome Pro 6.4.0 by @fontawesome - https://fontawesome.com License - https://fontawesome.com/license (Commercial License) Copyright 2023 Fonticons, Inc. --><path d="M480 160V352H64V160H480zM64 96H0v64V352v64H64 480h64V352 320h32V192H544V160 96H480 64zm128 96H96V320h96V192z"/></svg>
